X:1
T:Title
%%score { 1 | 2 }
L:1/8
M:3/4
K:Bb
V:1 treble nm="Grand Piano"
V:2 bass 
V:1
 z2 z2[Q:1/4=100] [DF]>[_D=E] | [EG]2 [DF]2 [Fd]>[EA] | [Dc]2 [DB]2 [DF]>[FB] | A3 G FE | %4
[M:2/4] D4 |[M:1/4] [DF]>[_D=E] |[M:3/4] [EG]2 [DF]2 [Fd]>[EA] | [Dc]2 [DB]2 [DF]>[FB] | A3 F GA | %9
[M:2/4] [DB]4 |[M:1/4] [B,D]>[CE] |[M:3/4] [DF]2 [Fd]2 [EA]>[Ec] | [DB]2 [B,D]2 [DF]>[DB] | %13
 A3 G FE |[M:2/4] D4 |[M:1/4] D>[CE] |[M:3/4] [DF]2 [Fd]2 [EA]>[Ec] | [DB]2 [B,D]2 [DF]>[DB] | %18
 A3 F GA |[M:2/4] [DB]4 |] %20
V:2
 z2 z2 [B,,B,]>[B,,B,] | [B,,B,]2 [B,,B,]2 [B,,B,]>[B,,F,] | [B,,F,]2 [B,,F,]2 [B,,B,]>[D,B,] | %3
 [F,CE]3 [F,A,E] [F,B,D][F,C] |[M:2/4] [B,,F,B,]4 |[M:1/4] [B,,B,]>[B,,B,] | %6
[M:3/4] [B,,B,]2 [B,,B,]2 [B,,B,]>[B,,F,] | [B,,F,]2 [B,,F,]2 [B,,B,]>[D,B,] | %8
 [F,CE]3 [F,A,E] [F,B,E][F,E] |[M:2/4] [B,,F,]4 |[M:1/4] [B,,F,]>[B,,F,] | %11
[M:3/4] [B,,B,]2 [B,,B,]2 [F,C]>[F,A,] | [B,,F,]2 [B,,F,]2 [B,,B,]>[B,,B,] | %13
 [F,CE]3 [F,A,E] [F,B,D][F,C] |[M:2/4] [B,,F,B,]4 |[M:1/4] [B,,F,B,]>[B,,F,] | %16
[M:3/4] [B,,B,]2 [B,,B,]2 [F,C]>[F,A,] | [B,,F,]2 [B,,F,]2 [B,,B,]>[B,,B,] | %18
 [F,CE]3 [F,A,E] [F,B,E][F,E] |[M:2/4] [B,,F,]4 |] %20

